X:1
T:[ID 2-126]
T:[ID 2-126]
T:Bezeichnung standardisiert: Menuet [mit Trio] Menuet Con Trio In dieser Quelle auch als: Menuetto
T:Urheber unbekannt Erstbeleg: 1767 (Datum in der schriftlichen Quelle) Datum in der hier transkribierten schriftlichen Quelle: 1773
C:Urheber unbekannt
C:Erstbeleg: 1767 (Datum in der schriftlichen Quelle)
C:Datum in der hier transkribierten schriftlichen Quelle: 1773
%%score 1 2
L:1/8
M:3/4
K:D
V:1 treble 
V:2 treble 
V:1
 D2 F2 A2 | d4"^1)" e2 | fe d2 c2 | d4"^1)" e2 | f2 D2 f2 | g2 E2 fg | a2 c2 df |{f} e6 :: %8
 A2 c2 ce | A2 d2 df | A2 e2 eg | f4 e2 | d2 f2 a2 | d'2 dc d2 | Agfbgf | d6 :| %16
[M:3/4]"^Trio" !fermata!D4 A,D | F4 DF | A4 FA | d2 D2 D2 | A,2 C2 D2 | A,2 C2 D2 | A2 ^C2 D2 | %23
 A,6 :: a2 ag a2 | A,2 A,2 A,2 | A2 GFED | A,2 A,2 A,2 | D4 A,D | F4 DF | A4 FA | d2 D2 D2 | %32
 A,2 B,2 C2 | D6 :| x6 | %35
V:2
 !fermata!F2 D2 F2 | F4 c2 | d2 F2 E2 | F4 c2 | d2 F2 d2 | e2 A2 de | f2 A2 B2 | c6 :: A2 e2 eg | %9
 c2 f2 fd | A2 c2 ce | d4 c2 | F2 d2 f2 | f2 fe f2 | d2 AFGE | F6 :|[M:3/4] F4 DF | D4 A,D | %18
 F4 DF | F2 F2 F2 | F2 E2 F2 | F2 E2 F2 | F2 A,2 B,2 | ^C6 :: f2 fe f2 | ^C2 C2 C2 | F2 ED^CB, | %27
 ^C2 C2 C2 | F4 DF | D4 A,D | F4 DF | F2 F2 F2 | F2 D2 A2 | F6 :| x6 | %35

